static/img/logos/main.svg

<svg xmlns="http://www.w3.org/2000/svg" width="1470" height="1576" fill="none"><path fill="#2C41DB" d="m192 1115 250 280v-280zM800 1395l159.843-280H800zM442 1115h358v280H442zM1190 191h58.5v237.5H1470V1326l-280 250z"/><path fill="#2C41DB" d="M1463.02 413.5 1263.5 199.061V413.5zM1189.86 950h.14V670H967.5v280h207.36V670.111h15zM687.5 942.5l265-265v265zM680 1115V957.5h280v142.48H680.015v15H960v.02z"/><path fill="#2C41DB" fill-rule="evenodd" d="M911.743 1296H1182l-.05.03h-6.97v5.42l-3.51 2.72 3.51 4.52V1576H837.66l9.882-7.67-6.132-7.9-14.771 11.47-84.133-126.75h84.089zm238.237 24.86 6.13 7.9-29.94 23.24-6.13-7.9zm-51.43 39.93 6.14 7.89-29.94 23.25-6.14-7.9zm-51.43 39.92 6.14 7.9-29.94 23.25-6.14-7.9zm-51.424 39.93 6.134 7.9-29.941 23.25-6.133-7.9zm-51.429 39.93 6.133 7.9-29.94 23.24-6.133-7.89zm-51.429 39.93 6.133 7.9-29.94 23.24-6.132-7.9zM472 0h-81.5v147.48l-53.5.14v12.334h-10v-12.307L192.02 148l-.02-7.5v129.505h135v-10.388h10v10.388h135zM337 189.832h-10v39.908h10zM472 285.005H337v14.521h-10v-14.521H192V1115h135v-.05H192.025v-15H327v-2.9h10v2.9h135V579.035H192.004v-15H327V538.76h10v25.275h135zm-135 44.398h-10v39.908h10zm0 69.786h-10v39.908h10zm0 69.785h-10v39.909h10zm0 139.572h-10v39.908h10zm0 69.786h-10v39.908h10zm0 69.785h-10v39.909h10zm0 69.786h-10v39.908h10zm0 69.786h-10v39.908h10zm0 69.786h-10v39.908h10zm0 69.785h-10v39.91h10z" clip-rule="evenodd"/><path fill="#2C41DB" d="M472 1114.95H337v.05h135zM375.5 5.497 201.584 132.975l173.916-.455zM0 285h800v280H0z"/></svg>

<svg width="1470" height="1576" viewBox="0 0 1470 1576" fill="none" xmlns="http://www.w3.org/2000/svg">
<path d="M192 1115L442 1395V1115H192Z" fill="#2C41DB"/>
<path d="M800 1395L959.843 1115H800V1395Z" fill="#2C41DB"/>
<path d="M442 1115H800V1395H442V1115Z" fill="#2C41DB"/>
<path d="M1190 191H1248.5V428.5H1470V1326L1190 1576V191Z" fill="#2C41DB"/>
<path d="M1463.02 413.5L1263.5 199.061V413.5H1463.02Z" fill="#2C41DB"/>
<path d="M1189.86 950H1190V670L967.5 670V950H1174.86V670.111H1189.86V950Z" fill="#2C41DB"/>
<path d="M687.5 942.5L952.5 677.5V942.5H687.5Z" fill="#2C41DB"/>
<path d="M680 1115V957.5H960L960 1099.98H680.015V1114.98H960V1115H680Z" fill="#2C41DB"/>
<path fill-rule="evenodd" clip-rule="evenodd" d="M911.743 1296H1182L1181.95 1296.03H1174.98V1301.45L1171.47 1304.17L1174.98 1308.69V1576H837.66L847.542 1568.33L841.41 1560.43L826.639 1571.9L742.506 1445.15L826.595 1445.15L911.743 1296ZM1149.98 1320.86L1156.11 1328.76L1126.17 1352L1120.04 1344.1L1149.98 1320.86ZM1098.55 1360.79L1104.69 1368.68L1074.75 1391.93L1068.61 1384.03L1098.55 1360.79ZM1047.12 1400.71L1053.26 1408.61L1023.32 1431.86L1017.18 1423.96L1047.12 1400.71ZM995.696 1440.64L1001.83 1448.54L971.889 1471.79L965.756 1463.89L995.696 1440.64ZM944.267 1480.57L950.4 1488.47L920.46 1511.71L914.327 1503.82L944.267 1480.57ZM892.838 1520.5L898.971 1528.4L869.031 1551.64L862.899 1543.74L892.838 1520.5Z" fill="#2C41DB"/>
<path fill-rule="evenodd" clip-rule="evenodd" d="M472 0H390.5V147.48L337 147.62V159.954H327V147.647L192.02 148L192 140.5V270.005H327V259.617H337V270.005H472V0ZM337 189.832H327V229.74H337V189.832Z" fill="#2C41DB"/>
<path fill-rule="evenodd" clip-rule="evenodd" d="M472 285.005H337V299.526H327V285.005H192V1115H327V1114.95H192.025V1099.95H327V1097.05H337V1099.95H472V579.035H192.004V564.035H327V538.76H337V564.035H472V285.005ZM337 329.403H327V369.311H337V329.403ZM337 399.189H327V439.097H337V399.189ZM337 468.974H327V508.883H337V468.974ZM337 608.546H327V648.454H337V608.546ZM337 678.332H327V718.24H337V678.332ZM337 748.117H327V788.026H337V748.117ZM337 817.903H327V857.811H337V817.903ZM337 887.689H327V927.597H337V887.689ZM337 957.475H327V997.383H337V957.475ZM337 1027.26H327V1067.17H337V1027.26Z" fill="#2C41DB"/>
<path d="M472 1114.95H337V1115H472V1114.95Z" fill="#2C41DB"/>
<path d="M375.5 5.49738L201.584 132.975L375.5 132.52V5.49738Z" fill="#2C41DB"/>
<rect y="285" width="800" height="280" fill="#2C41DB"/>
</svg>
